X: 1
T: Sleepy Meggy
R: reel
Z: Lionel Winship (1833)
M: C|
K: Ador
e2cd eAcd|e2ce dGBd|e2cd eAcd|efge dGBd:|
|:eAcA eAcd|eAcA dGBd|eAcA eAcd|efge dGBd:|
|:e2ca Aecd|e2ca GdBd|e2ca Aecd|eage dGBd:|
|:eAaA eAcd|eAaA gGBd|eAaA gAfA|eAfA gGBd:|
